app/img/_src/main/howwework/work-1.svg

<svg width="54" height="53" viewBox="0 0 54 53" fill="none" xmlns="http://www.w3.org/2000/svg">
<path d="M53.4088 0.15402C53.0433 -0.0545739 52.5938 -0.0510582 52.2316 0.163161L30.7566 12.8621C30.1995 13.1915 30.0149 13.9101 30.3443 14.4672C30.6736 15.0242 31.3922 15.2087 31.9494 14.8794L47.3575 5.76824L18.6575 35.5471L4.38316 31.18L23.0119 20.1644C23.569 19.8348 23.7536 19.1162 23.4241 18.5591C23.0948 18.0021 22.3761 17.8173 21.819 18.1469L0.903516 30.5147C0.503906 30.7511 0.281367 31.201 0.336328 31.6621C0.391289 32.1232 0.713203 32.5083 1.15711 32.6441L18.2043 37.8594L25.725 51.5485C25.7329 51.5627 25.7409 51.5746 25.7493 51.5853C25.8748 51.7946 26.0629 51.9655 26.2975 52.0642C26.4443 52.126 26.5986 52.1561 26.7519 52.1561C27.0523 52.1561 27.3479 52.0405 27.5712 51.8222L36.2189 43.3707L52.4852 48.3471C52.5977 48.3815 52.7132 48.3985 52.828 48.3985C53.076 48.3985 53.3209 48.3197 53.525 48.1687C53.8237 47.9477 54 47.5981 54 47.2266V1.17191C54 0.75109 53.7743 0.362496 53.4088 0.15402ZM25.7889 38.5817C25.6532 38.7777 25.5804 39.0105 25.5804 39.2489V46.4174L20.4449 37.07L43.17 13.4907L25.7889 38.5817ZM27.9241 48.2003V40.8331L33.6652 42.5895L27.9241 48.2003ZM51.6562 45.6426L28.629 38.5977L51.6562 5.35597V45.6426Z" fill="url(#paint0_linear)"/>
<defs>
<linearGradient id="paint0_linear" x1="27.164" y1="0" x2="27.164" y2="52.1561" gradientUnits="userSpaceOnUse">
<stop stop-color="#8888D3"/>
<stop offset="1" stop-color="#5E60A3"/>
</linearGradient>
</defs>
</svg>

<svg width="54" height="53" fill="none" xmlns="http://www.w3.org/2000/svg"><path d="M53.409.154a1.172 1.172 0 00-1.177.01L30.757 12.861a1.172 1.172 0 101.192 2.017l15.409-9.11-28.7 29.778L4.382 31.18l18.629-11.016a1.172 1.172 0 00-1.193-2.017L.904 30.515a1.172 1.172 0 00.253 2.13l17.047 5.214 7.521 13.69a.276.276 0 00.024.036 1.168 1.168 0 001.822.237l8.648-8.451 16.266 4.976A1.172 1.172 0 0054 47.227V1.172c0-.42-.226-.81-.591-1.018zm-27.62 38.428a1.172 1.172 0 00-.209.667v7.168l-5.135-9.347L43.17 13.49 25.789 38.583zm2.135 9.618v-7.367l5.741 1.757-5.74 5.61zm23.732-2.557L28.63 38.598 51.656 5.356v40.287z" fill="url(#paint0_linear)"/><defs><linearGradient id="paint0_linear" x1="27.164" y1="0" x2="27.164" y2="52.156" gradientUnits="userSpaceOnUse"><stop stop-color="#8888D3"/><stop offset="1" stop-color="#5E60A3"/></linearGradient></defs></svg>
